svg/fluentui-system-icons/ic_fluent_document_copy_48_filled.svg

<svg width="48" height="48" viewBox="0 0 48 48" fill="none" xmlns="http://www.w3.org/2000/svg">
<path d="M25 14.75V5H18.25C15.9028 5 14 6.90279 14 9.25V33.75C14 36.0972 15.9028 38 18.25 38H34.75C37.0972 38 39 36.0972 39 33.75V19H29.25C26.9028 19 25 17.0972 25 14.75ZM27.5 14.75V5.5L38.5 16.5H29.25C28.2835 16.5 27.5 15.7165 27.5 14.75ZM9 13.7C9 12.0213 10.0341 10.5842 11.5 9.99078V33.75C11.5 37.478 14.5221 40.5 18.25 40.5H34.0092C33.4159 41.9659 31.9787 43 30.3 43H18.25C13.1414 43 9 38.8587 9 33.75V13.7Z" fill="#212121"/>
</svg>

<svg xmlns="http://www.w3.org/2000/svg" width="48" height="48"><path d="M25 14.75V5h-6.75A4.25 4.25 0 0 0 14 9.25v24.5A4.25 4.25 0 0 0 18.25 38h16.5A4.25 4.25 0 0 0 39 33.75V19h-9.75A4.25 4.25 0 0 1 25 14.75Zm2.5 0V5.5l11 11h-9.25a1.75 1.75 0 0 1-1.75-1.75ZM9 13.7a4.001 4.001 0 0 1 2.5-3.71v23.76a6.75 6.75 0 0 0 6.75 6.75h15.76A4.001 4.001 0 0 1 30.3 43H18.25A9.25 9.25 0 0 1 9 33.75V13.7Z"/></svg>
